libs/icons/src/svg/delete-x.svg

<svg width="16" height="16" viewBox="0 0 16 16" fill="none" xmlns="http://www.w3.org/2000/svg">
<path d="M7.52862 6.19526C7.78896 5.93491 8.21107 5.93491 8.47142 6.19526L9.33335 7.05719L10.1953 6.19526C10.4556 5.93491 10.8777 5.93491 11.1381 6.19526C11.3984 6.45561 11.3984 6.87772 11.1381 7.13807L10.2762 8L11.1381 8.86193C11.3984 9.12228 11.3984 9.54439 11.1381 9.80473C10.8777 10.0651 10.4556 10.0651 10.1953 9.80473L9.33335 8.94281L8.47142 9.80473C8.21107 10.0651 7.78896 10.0651 7.52862 9.80473C7.26827 9.54439 7.26827 9.12228 7.52862 8.86193L8.39054 8L7.52862 7.13807C7.26827 6.87772 7.26827 6.45561 7.52862 6.19526Z" fill="#202327"/>
<path fill-rule="evenodd" clip-rule="evenodd" d="M4.82718 2.89947C4.95384 2.75171 5.13874 2.66666 5.33335 2.66666H15.3334C15.7015 2.66666 16 2.96514 16 3.33333V12.6667C16 13.0349 15.7015 13.3333 15.3334 13.3333H5.33335C5.13874 13.3333 4.95384 13.2483 4.82718 13.1005L0.827183 8.43386C0.613188 8.1842 0.613188 7.8158 0.827183 7.56614L4.82718 2.89947ZM5.63998 4L2.21141 8L5.63998 12H14.6667V4H5.63998Z" fill="#202327"/>
</svg>

<svg xmlns="http://www.w3.org/2000/svg" viewBox="0 0 16 16" class="sageicon"><path d="M7.529 6.195c.26-.26.682-.26.942 0l.862.862.862-.862a.667.667 0 1 1 .943.943L10.276 8l.862.862a.667.667 0 0 1-.943.943l-.862-.862-.862.862a.667.667 0 1 1-.942-.943L8.39 8l-.862-.862a.667.667 0 0 1 0-.943Z"/><path fill-rule="evenodd" d="M4.827 2.9a.667.667 0 0 1 .506-.233h10c.368 0 .667.298.667.666v9.334a.667.667 0 0 1-.667.666h-10a.667.667 0 0 1-.506-.232l-4-4.667a.667.667 0 0 1 0-.868l4-4.667ZM5.64 4 2.211 8l3.429 4h9.027V4H5.64Z"/></svg>
